X:1
T:Title
%%score 1 2 3 4
L:1/8
Q:1/4=260
M:4/2
K:F
V:1 treble-8 nm="MusicXML Part"
V:2 treble-8 nm="MusicXML Part"
V:3 treble-8 nm="MusicXML Part"
V:4 bass nm="MusicXML Part"
V:1
 c8 c4 c4 | d6 d2 c4 d4- | d2 d2 e4 f8 | e8 z4 e4 | f6 e2 d4 d4 | c4 d8 d4 | c16 | c16 | z16 | %9
w: Can- ta- te|Do- mi- no can-|* ti- cum no-|vum, can-|ta- te Do- mi-|no o- mnis|ter-|ra,||
 z8 z4 c2 d2 | e2 d2 e2 f2 g2 f2 e2 d2 | c4 d6 c2 c4- | c4 =B4 c8 |[M:3/1] c8 c8 c8 | d12 d4 c8 | %15
w: can- *||* ta- te Do-|* mi- no,|et be- ne-|di- ci- te|
 f12 f4 e8 | d12 c4 d8 | e16 z8 | c8 c8 c8 | d12 d4 c8 | d16 d8 | A8 c16 |[M:4/2] c8 z8 | %23
w: no- mi- ni|e- * *|ius,|et be- ne-|di- ci- te|no- mi-|ni e-|ius:|
 z4 c4 d6 f2 | e4 f2 f2 f6 e2 | d8 e4 c4 | d8 d4 d4 | ^c8 d8 | e4 e4 f2 e2 d2 c2 | B4 d8 c4- | %30
w: an- nun- ti-|a- te, an- nun- ti-|a- te de|di- e in|di- em|sa- lu- ta- * * *|* re e-|
 c2 =BA B4 c8 | z8 z4 c4 | d6 f2 e4 f2 f2 | f6 e2 d4 d4 | e4 g4 f8 | e4 f6 f2 e4 | d8 c8 | %37
w: * * * * ius,|an-|nun- ti- a- te, an-|nun- ti- a- te|in- ter gen-|tes glo- ri- am|e- ius,|
 z4 f4 e6 e2 | f4 g8 f4 | e4 d4 e4 f4- | f2 f2 e4 g8 | e4 c8 c4 | d2 e2 f2 d2 e2 f2 g4- | %43
w: in o- mni-|bus po- pu-|li mi- ra- bi-|* li- a e-|ius, mi- ra-|bi- * * * * * *|
 g2 f2 f8 e4 | f8 f6 f2 | f2 f2 f4 f8 | f16 |] %47
w: * li- a e-|ius, mi- ra-|bi- li- a e-|ius.|
V:2
 A8 G4 A4 | B6 B2 A4 B4- | B2 B2 c8 =B4 | c4 G4 c6 B2 | A8 B6 B2 | A4 B8 B4 | A8 G8 | %7
w: Can- ta- te|Do- mi- no can-|* ti- cum no-|vum, can- ta- te|Do- * mi-|no o- mnis|ter- *|
 A4 F2 G2 A2 G2 A2 B2 | c2 B2 A4 G4 c4 | B4 G4 A6 B2 | c4 c4 B2 A2 G4 | A8 G8- | G4 G4 G8 | %13
w: ra, can- * * * * *|* * * ta- te|Do- mi- no, *|* can- ta- * *|te Do-|* mi- no,|
[M:3/1] A8 A8 A8 | B12 B4 A8 | c12 c4 c8 | =B12 A4 B8 | c16 z8 | A8 A8 G8 | B12 B4 A8 | B16 A8- | %21
w: et be- ne-|di- ci- te|no- mi- ni|e- * *|ius,|et be- ne-|di- ci- te|no- mi-|
 A4 F4 G16 |[M:4/2] A8 z8 | z4 A4 B6 A2 | G4 F2 c2 d6 c2 | =B8 c4 A4 | B8 B4 A4 | A8 =B8 | c12 A4 | %29
w: * ni e-|ius:|an- nun- ti-|a- te, an- nun- ti-|a- te de|di- e in|di- em|sa- lu-|
 G12 G4 | G8 G8 | z8 z4 A4 | B6 A2 G4 F2 c2 | d6 c2 A4 =B4 | c4 c2 c4 =BA B4 | c4 c6 c2 c4 | %36
w: ta- re|e- ius,|an-|nun- ti- a- te, an-|nun- ti- a- te|in- ter gen- * * *|tes glo- ri- am|
 B6 A2 G8 | A4 c4 c6 c2 | c4 _e8 c4 | c4 =B4 c4 c4- | c2 c2 c8 =B4 | c4 A8 A4 | B4 A4 c8 | c16 | %44
w: e- * *|ius, in o- mni-|bus po- pu-|li mi- ra- bi-|* li- a e-|ius, mi- ra-|bi- li- a|e-|
 A4 c8 c4 | d2 d2 c4 d8 | c16 |] %47
w: ius, mi- ra-|bi- li- a e-|ius.|
V:3
 F8 E4 F4 | F6 F2 F4 F4- | F2 F2 A4 F8 | G4 E4 A6 G2 | F12 F4 | F4 F4 D4 G4- | G2 F2 F8 E4 | F16 | %8
w: Can- ta- te|Do- mi- no can-|* ti- cum no-|vum, can- ta- te|Do- mi-|no o- * *|* mnis ter- *|ra,|
 z4 C2 D2 E2 D2 E2 F2 | G2 F2 E4 F8 | G4 E4 D4 E4- | E4 F6 E2 E2 DC | D4 D4 E8 |[M:3/1] F8 F8 F8 | %14
w: can- * * * * *|* * * ta-|te can- ta- te|* Do- * * * *|* mi- no,|et be- ne-|
 F12 F4 F8 | A12 A4 G8 | G24 | G16 z8 | F8 F8 E8 | F12 F4 F8 | F4 D4 G16 | F16 E8 | %22
w: di- ci- te|no- mi- ni|e-|ius,|et be- ne-|di- ci- te|no- mi- ni|e- *|
[M:4/2] F4 c4 B6 A2 | G4 F4 z8 | z4 z2 A2 B6 G2 | G8 G4 F4 | F8 G4 F4 | E8 G8- | G4 A6 G2 F2 E2 | %29
w: ius: an- nun- ti-|a- te,|an- nun- ti-|a- te de|di- e in|di- em|* sa- * * *|
 D6 D2 E4 E4 | D8 E4 c4 | B6 A2 G4 F4 | z8 z4 z2 A2 | B6 G2 ^F4 G4 | G4 G4 A2 G2 F4 | G4 A6 A2 A4 | %36
w: * lu- ta- re|e- ius, an-|nun- ti- a- te,|an-|nun- ti- a- te|in- ter gen- * *|tes glo- ri- am|
 F2 D2 F8 E4 | F4 A4 G6 G2 | A4 B8 A4 | G4 G4 G4 A4- | A2 A2 A4 D8 | C4 F8 F4 | F6 F2 G8 | %43
w: e- * * *|ius, in o- mni-|bus po- pu-|li mi- ra- bi-|* li- a e-|ius, mi- ra-|bi- li- a|
 A6 GF G8 | F4 A8 A4 | B2 B2 A4 B2 F2 B4 | A16 |] %47
w: e- * * *|ius, mi- ra-|bi- li- a e- * *|ius.|
V:4
 F,,8 C,4 F,,4 | B,,6 B,,2 F,,4 B,,4- | B,,2 B,,2 A,,4 D,8 | C,8 z4 C,4 | D,6 C,2 B,,4 B,,4 | %5
w: Can- ta- te|Do- mi- no can-|* ti- cum no-|vum, can-|ta- te Do- mi-|
 F,,4 B,,8 G,,4 | A,,6 B,,2 C,8 | F,,8 z4 F,,2 G,,2 | A,,2 G,,2 A,,2 B,,2 C,2 B,,2 A,,4 | %9
w: no o- mnis|ter- * *|ra, can- *||
 G,,4 C,4 F,,8 | C,8 G,,4 C,4 | A,,2 G,,2 F,,4 G,,8 | G,,6 G,,2 C,8 |[M:3/1] F,,8 F,,8 F,,8 | %14
w: ta- te Do-|mi- no, can-|ta- * * te|Do- mi- no,|et be- ne-|
 B,,12 B,,4 F,,8 | F,12 F,4 C,8 | G,,24 | C,16 z8 | F,,8 A,,8 C,8 | B,,12 B,,4 F,,8 | %20
w: di- ci- te|no- mi- ni|e-|ius,|et be- ne-|di- ci- te|
 B,,12 B,,4 D,8- | D,8 C,16 |[M:4/2] F,,4 F,4 D,6 F,2 | E,4 F,4 z8 | z4 z2 F,2 B,,6 C,2 | %25
w: no- mi- ni|* e-|ius: an- nun- ti-|a- te,|an- nun- ti-|
 G,,8 C,4 F,,4 | B,,8 G,,4 D,4 | A,,8 G,,8 | C,2 B,,2 A,,2 G,,2 F,,4 F,,4 | G,,4 =B,,4 C,8 | %30
w: a- te de|di- e in|di- em|sa- * * * * lu-|ta- re e-|
 G,,8 C,4 C,4 | D,6 F,2 E,4 F,4 | z8 z4 z2 F,2 | B,,6 C,2 D,4 G,,4 | C,4 E,4 D,8 | %35
w: * ius, an-|nun- ti- a- te,|an-|nun- ti- a- te|in- ter gen-|
 C,4 F,,6 F,,2 A,,4 | B,,8 C,8 | F,,4 F,4 C,6 C,2 | F,4 _E,8 F,4 | C,4 G,,4 C,4 F,,4- | %40
w: tes glo- ri- am|e- *|ius, in o- mni-|bus po- pu-|li mi- ra- bi-|
 F,,2 F,,2 A,,4 G,,8 | C,4 F,,8 F,,4 | B,,2 C,2 D,4 C,2 D,2 E,4 | F,8 C,8 | F,,4 F,8 F,4 | %45
w: * li- a e-|ius, mi- ra-|bi- * * li- * *|a e-|ius, mi- ra-|
 D,2 D,2 F,4 B,,8 | F,,16 |] %47
w: bi- li- a e-|ius.|

